X: 1
T:Reel
M:C
L:1/8
R:reel
A:Limerick
K:D
BAFA D2 FA|D2 FA BE E2|BAFA D3 F|ABde fedB|
BAFA D2 FA|D2 FA BE E2|BAFA DEFG|ABde fd d2 ||
{f}a3 f a2 af|gfga be e2|{f}a3 f gedB|ABde fd D2|
faaf a2 af|gfga beeg|fgfe dedB|1 ABde fedB :|2 ABfe fd d2 |]
